static/assets/images/products/kubevault/features/secrets.svg

<svg width="32" height="32" viewBox="0 0 32 32" fill="none" xmlns="http://www.w3.org/2000/svg">
<path d="M3 15.9674V3.6966C2.99998 2.72058 3.38614 1.78419 4.07415 1.09191C4.76216 0.399626 5.69613 0.00768076 6.67213 0.00165594H20.3571C20.6962 -0.0112727 21.0339 0.0516341 21.3456 0.18579C21.6574 0.319947 21.9352 0.521972 22.1589 0.777137C24.0976 2.76146 26.0364 4.76858 27.9979 6.7301C28.2742 7.00379 28.4917 7.33115 28.6368 7.69201C28.7819 8.05288 28.8517 8.43963 28.8418 8.82846V28.2611C28.8389 28.7522 28.7381 29.2378 28.5454 29.6894C28.3527 30.1411 28.0719 30.5499 27.7194 30.8918C27.3668 31.2337 26.9497 31.5019 26.4923 31.6807C26.035 31.8595 25.5465 31.9454 25.0556 31.9332H6.80898C6.31424 31.9485 5.82148 31.8642 5.35994 31.6854C4.89841 31.5066 4.4775 31.2368 4.12223 30.8922C3.76695 30.5475 3.48454 30.135 3.29176 29.6791C3.09898 29.2232 2.99976 28.7333 3 28.2383V15.9674ZM19.9694 1.64385H6.8546C6.54715 1.61159 6.23638 1.64841 5.94499 1.75163C5.6536 1.85484 5.38894 2.02184 5.17035 2.24043C4.95176 2.45902 4.78476 2.72368 4.68155 3.01507C4.57833 3.30646 4.54151 3.61723 4.57377 3.92468V28.1471C4.54572 28.4536 4.58546 28.7625 4.69017 29.052C4.79487 29.3415 4.96198 29.6044 5.17964 29.822C5.3973 30.0397 5.66018 30.2068 5.94964 30.3115C6.23911 30.4162 6.54806 30.4559 6.8546 30.4279H24.9187C25.2253 30.4559 25.5342 30.4162 25.8237 30.3115C26.1132 30.2068 26.376 30.0397 26.5937 29.822C26.8114 29.6044 26.9785 29.3415 27.0832 29.052C27.1879 28.7625 27.2276 28.4536 27.1996 28.1471C27.1996 21.8748 27.1996 15.6025 27.1996 9.30743C27.1996 9.05654 27.1996 8.98811 26.8574 8.98811C25.603 8.98811 24.3485 8.98811 23.0941 8.98811C22.6842 9.00049 22.2761 8.92966 21.8944 8.77989C21.5127 8.63011 21.1654 8.40451 20.8733 8.11672C20.5812 7.82892 20.3506 7.4849 20.1952 7.10545C20.0398 6.72599 19.963 6.31898 19.9694 5.909V1.64385Z" fill="#326CE5"/>
<path d="M20.0606 15.4191H20.5623C21.0185 15.4191 21.1554 15.5787 21.1554 16.0577V22.0563C21.1554 22.4896 21.0185 22.6265 20.5852 22.6265H11.2338C10.7776 22.6265 10.6407 22.4896 10.6407 22.0107V16.0805C10.6407 15.5559 10.7776 15.4191 11.3022 15.4191H11.7355C11.7469 15.2596 11.7469 15.0996 11.7355 14.9401C11.7379 14.1233 11.7988 13.3077 11.918 12.4996C12.1543 11.5432 12.7267 10.7036 13.5306 10.1341C14.3346 9.56463 15.3165 9.30326 16.2972 9.3977C17.3045 9.52189 18.2345 10.0012 18.9201 10.7495C19.6057 11.4978 20.002 12.4661 20.0378 13.4804V15.0313C20.0343 15.161 20.0419 15.2907 20.0606 15.4191V15.4191ZM13.2181 15.4191H18.6465C18.6465 14.7804 18.6465 14.1418 18.6465 13.5032C18.6252 12.8056 18.3447 12.1409 17.8597 11.639C17.3747 11.1371 16.72 10.8341 16.0235 10.789C15.3574 10.7581 14.7032 10.9736 14.1857 11.3943C13.6683 11.815 13.3238 12.4114 13.2181 13.0698C13.1618 13.8441 13.1542 14.6211 13.1953 15.3963L13.2181 15.4191Z" fill="#326CE5"/>
</svg>

<svg xmlns="http://www.w3.org/2000/svg" width="32" height="32" fill="#326ce5" xmlns:v="https://vecta.io/nano"><path d="M3 15.967V3.697c0-.976.386-1.912 1.074-2.605A3.69 3.69 0 0 1 6.672.002h13.685a2.28 2.28 0 0 1 1.802.775l5.839 5.953a2.85 2.85 0 0 1 .844 2.098v19.433c-.003.491-.104.977-.296 1.428a3.69 3.69 0 0 1-.826 1.202 3.71 3.71 0 0 1-1.227.789c-.457.179-.946.265-1.437.252H6.809a3.7 3.7 0 0 1-1.449-.248 3.71 3.71 0 0 1-1.238-.793c-.356-.344-.638-.757-.83-1.213A3.71 3.71 0 0 1 3 28.238V15.967zM19.969 1.644H6.855c-.307-.032-.618.005-.91.108a2.07 2.07 0 0 0-1.264 1.264c-.103.292-.14.602-.108.91v24.222a2.1 2.1 0 0 0 .116.905 2.11 2.11 0 0 0 .489.77 2.1 2.1 0 0 0 1.675.606h18.064a2.1 2.1 0 0 0 1.675-.606c.218-.218.385-.48.49-.77a2.1 2.1 0 0 0 .116-.905V9.307c0-.251 0-.319-.342-.319h-3.763a3.04 3.04 0 0 1-1.2-.208 3.03 3.03 0 0 1-1.021-.663c-.292-.288-.523-.632-.678-1.011a3.03 3.03 0 0 1-.226-1.196V1.644zm.092 13.775h.502c.456 0 .593.16.593.639v5.999c0 .433-.137.57-.57.57h-9.351c-.456 0-.593-.137-.593-.616v-5.93c0-.525.137-.661.661-.661h.433a3.36 3.36 0 0 0 0-.479 17.07 17.07 0 0 1 .182-2.44c.236-.956.809-1.796 1.613-2.365s1.786-.831 2.767-.736a4.27 4.27 0 0 1 2.623 1.352c.686.748 1.082 1.717 1.118 2.731v1.551a2.29 2.29 0 0 0 .023.388h0zm-6.843 0h5.428v-1.916c-.021-.698-.302-1.362-.787-1.864s-1.14-.805-1.836-.85a2.72 2.72 0 0 0-1.838.605 2.71 2.71 0 0 0-.968 1.676 18.61 18.61 0 0 0-.023 2.326l.023.023z"/></svg>
